Obsidian/actions/24s/labplot-TeX-logo.svg

<svg height="24" viewBox="0 0 24 24" width="24" xmlns="http://www.w3.org/2000/svg"><path d="m9.7890625 3.890625-.7910156.609375 2.2656251 2.9453125-2.2656251 2.9453125.7910156.609375 2.1054685-2.7363281 2.103516 2.7363281.791015-.609375-2.263671-2.9453125 2.263671-2.9453125-.791015-.609375-2.103516 2.7363281zm-9.79101563.109375v1h2.00000003v6h1v-6h2v-1zm4.00000003 2v1 1.5 1 2.5 1h5v-1h-4v-2h4v-1h-4v-2h4v-1z" fill="#bebebe" transform="translate(4 4)"/></svg>

<svg xmlns="http://www.w3.org/2000/svg" width="24" height="24" viewBox="0 0 24 24">
 <defs>
  <style id="current-color-scheme" type="text/css">
   .ColorScheme-Text { color:#bebebe; } .ColorScheme-Highlight { color:#4285f4; }
  </style>
 </defs>
 <path style="fill:currentColor" class="ColorScheme-Text" d="M 9.7890625 3.890625 L 8.9980469 4.5 L 11.263672 7.4453125 L 8.9980469 10.390625 L 9.7890625 11 L 11.894531 8.2636719 L 13.998047 11 L 14.789062 10.390625 L 12.525391 7.4453125 L 14.789062 4.5 L 13.998047 3.890625 L 11.894531 6.6269531 L 9.7890625 3.890625 z M -0.001953125 4 L -0.001953125 5 L 1.9980469 5 L 1.9980469 11 L 2.9980469 11 L 2.9980469 5 L 4.9980469 5 L 4.9980469 4 L -0.001953125 4 z M 3.9980469 6 L 3.9980469 7 L 3.9980469 8.5 L 3.9980469 9.5 L 3.9980469 12 L 3.9980469 13 L 8.9980469 13 L 8.9980469 12 L 4.9980469 12 L 4.9980469 10 L 8.9980469 10 L 8.9980469 9 L 4.9980469 9 L 4.9980469 7 L 8.9980469 7 L 8.9980469 6 L 3.9980469 6 z" transform="translate(4 4)"/>
</svg>
